X:169
T:Hur du v\"ander dig
R:sl\"angpolska
H:Text jfr #69, #109
A:\"Osterg\"otland
B:LC Wiede nr 314:2
Z:id:hn-sp-169
M:3/4
L:1/16
K:G
G2A2 A2B2 B2G2 | A2B2 B2c2 c2d2 |
w:Hur du v\"and-er dig och hur du sv\"ang-er dig s{\aa}
e2d2 B2B2 d2c2 | A2B2 G4 z4 :|
w:lag-a att du har en trog-en v\"an.
F2G2 A4 A2B2 | c2d2 c4 B2G2 | 
w:Snart f\"or-g{\aa} di-na ung-a dag-ar och
F2G2 A4 A2B2 | c2d2 c4 B2G2 |
w:snart f\"or-g{\aa} di-na ung-a dag-ar och
G2A2 A2B2 B2G2 | A2B2 B2c2 c2d2 |
w:ald-rig kom-ma de och ald-rig kom-ma de och 
e2d2 B2B2 d2c2 | A2B2 G4 z4 :|
w:ald-rig kom-ma de h\"ar mer i-gen.

